Facilitet_punkt_5800_Piktogrammer/Cirkel/SVG/LEGEPLADS.svg

<svg xmlns="http://www.w3.org/2000/svg" width="5.5mm" height="5.5mm" viewBox="0 0 15.591 15.591">
  <rect width="15.591" height="15.591" rx="7.795" fill="#031E3A"/>
  <path d="M13.1,11.567,11.488,3.984a2.09,2.09,0,0,0-2.035-1.65H5.912A2.079,2.079,0,0,0,3.865,4.043L2.494,11.58a.462.462,0,1,0,.909.166L4.775,4.208a1.154,1.154,0,0,1,1.137-.949h.37v6.812H6.051a.463.463,0,0,0,0,.925H9.274a.463.463,0,0,0,0-.925H9.043V3.259h.41a1.161,1.161,0,0,1,1.13.916l1.607,7.584a.462.462,0,0,0,.452.367.447.447,0,0,0,.1-.01A.463.463,0,0,0,13.1,11.567Zm-4.515-1.5H6.745V3.259H8.58Z" fill="#fff"/>
</svg>

<?xml version="1.0" encoding="UTF-8"?>
<svg xmlns="http://www.w3.org/2000/svg" viewBox="0 0 15.59 15.59">
  <defs>
    <style>
      .cls-1 {
        fill: #071f39;
      }

      .cls-1, .cls-2 {
        stroke-width: 0px;
      }

      .cls-2 {
        fill: #fff;
      }
    </style>
  </defs>
  <g id="Cirkel">
    <rect class="cls-1" x="0" y="0" width="15.59" height="15.59" rx="7.8" ry="7.8"/>
  </g>
  <g id="ICONS">
    <path class="cls-2" d="M13.1,11.57l-1.61-7.58c-.2-.96-1.06-1.65-2.04-1.65h-3.54c-1.01,0-1.87.72-2.05,1.71l-1.37,7.54c-.05.25.12.49.37.54.25.05.49-.12.54-.37l1.37-7.54c.1-.55.58-.95,1.14-.95h.37v6.81h-.23c-.26,0-.46.21-.46.46s.21.46.46.46h3.22c.26,0,.46-.21.46-.46s-.21-.46-.46-.46h-.23V3.26h.41c.54,0,1.02.39,1.13.92l1.61,7.58c.05.22.24.37.45.37.03,0,.06,0,.1,0,.25-.05.41-.3.36-.55ZM8.58,10.07h-1.84V3.26h1.84v6.81Z"/>
  </g>
</svg>
